!!!!SEGMENT: pl-wn--sd-xvi-qu-273--145_gomolka-mikolaj--ciebie-chwale-boze-moj-imieniowi-twemu.krn
!!!cenid: 15xx:350
!!!COM: Gomółka, Mikołaj
!!!COM-rismid: pe30013343
!!!CDT: ~1535->1591/04/30
!!!CNT: Polish
!!!GTL: Melodiae na psalterz polski
!!!OTL: CXLV. Ciebie chwalę, Boże mój, imieniowi Twemu
!!!PDT: 1580
!!!AGN: Sacred
!!!SMS-siglum: PL-Wn
!!!SMS-shelfmark: SD XVI.Qu.273
!!!SMS-shelfwork: 146 G
!!!NIFC-rismid:
!!!ONB-nifc: Melodiae na psalterz polski
**kern	**text	**kern	**text	**kern	**text	**kern	**text
*part4	*part4	*part3	*part3	*part2	*part2	*part1	*part1
*staff4	*staff4	*staff3	*staff3	*staff2	*staff2	*staff1	*staff1
*clefF3	*	*clefC3	*	*clefC2	*	*clefG2	*
*k[b-]	*	*k[b-]	*	*k[b-]	*	*k[b-]	*
*F:	*	*F:	*	*F:	*	*F:	*
*M4/2	*	*M4/2	*	*M4/2	*	*M4/2	*
*met(C|)	*	*met(C|)	*	*met(C|)	*	*met(C|)	*
=1	=1	=1	=1	=1	=1	=1	=1
2.F	Cie-	2f	Cie-	2c	Cie-	2.cc	Cie-
.	.	2f	-bie	2.c	-bie	.	.
4G	-bie	.	.	.	.	4b-/	-bie
4A	chwa	2f	chwa-	.	.	2a	chwa-
4B-	.	.	.	4d	chwa-	.	.
2c	lę/	2e	-lę/	2e/	-lę/	2g	-lę/
=2-	=2	=2	=2	=2	=2	=2	=2
2F/	bo-	2d	bo-	4f	bo-	2a	bo-
.	.	.	.	4d	.	.	.
2G	-ʒ̇e	2d	-ʒ̇e	4g	ʒ̇e	2b-X/	-ʒ̇e
.	.	.	.	4f	.	.	.
2A	móy/	2c/	móy/	2e/	móy/	2cc	móy/
4D	i-	2f	i-	2a	i-	2.dd	i-
4E	.	.	.	.	.	.	.
=3-	=3	=3	=3	=3	=3	=3	=3
4F	-mię-	2f	-mię-	2a	-mię-	.	.
4G	.	.	.	.	.	4cc	mię-
2A	-(nio-	2e	-(nio-	2a	-(nio-	2cc	-(nio-
2F/	-wi)	2d	-wi)	2a	-wi)	2cc	-wi)
2G	twe-	2d	twe-	4g	twe	2b-/	twe-
.	.	.	.	4f	.	.	.
=4-	=4	=4	=4	=4	=4	=4	=4
1C	-mu	1c	-mu	1e	mu	1cc	-mu
1F	Ná	1c	Ná	1f	Ná	1a	Ná
=5-	=5	=5	=5	=5	=5	=5	=5
2F	wie-	2c/	wie-	2f	wie-	2a	wie-
2G	-ťi	2B-	-ťi	2d	-ťi	2b-/	-ťi
4A	bło-	2A	bło-	2c	bło-	4cc	bło-
4G	.	.	.	.	.	4b-	.
4F/	goʃ-	2A	-goʃ--	2.f	-goʃ-	4a	-goʃ-
4E	.	.	.	.	.	4g	.
=6-	=6	=6	=6	=6	=6	=6	=6
4D	łá-	1d	-łá_wić	.	.	2f	łá-
4C	.	.	.	4e/	łá-	.	.
2BB-	wić-	.	.	4d	-wić	2b-/	-wić
.	.	.	.	4e/	.	.	.
!!LO:PB:g=original
2F	bę-	2c/	bę-	4f	bę-	2a	bę-
.	.	.	.	2f	.	.	.
2G	dę-	2B-	-dę	.	.	2g	-dę
.	.	.	.	4e/	-dę	.	.
=7-	=7	=7	=7	=7	=7	=7	=7
2F	chwá-	2A	chwá-	2f	chwá-	2a	chwá-
2C	-le-	4G	-le	2g	-le-	2ee	-le
.	.	4A	.	.	.	.	.
4BB-	-(bne-	2B-	(bne-	4d	-(bne	2dd	(bne-
4C	.	.	.	4e/	.	.	.
4D	mu)	2B-	-mu)	4f	mu)	2dd	-mu)
4E	.	.	.	4g	.	.	.
=8-	=8	=8	=8	=8	=8	=8	=8
1F	Ӡa-	1A	Ӡa-	1a	Ӡa-	1cc	Ӡa-
2.F	-den	1F	-den_mi	1c	-den_mi	2a	-den
.	.	.	.	.	.	1a	mi
4E	mi	.	.	.	.	.	.
=9-	=9	=9	=9	=9	=9	=9	=9
4D	.	2A	.	2d	.	.	.
4C	.	.	.	.	.	.	.
2D	dźień	2Bn	dźień	2d	dźień	4g	dźień
.	.	.	.	.	.	4f	.
2C	beʒ	2c/	beʒ	2e/	beʒ	2e	beʒ
2F/	two-	2c/	two-	2f	two-	2a	two-
=10-	=10	=10	=10	=10	=10	=10	=10
4BB-	-iéy	1d	-iéy	1f	-iéy	1b-	-iéy
4C	.	.	.	.	.	.	.
4D	.	.	.	.	.	.	.
4E	.	.	.	.	.	.	.
2F/	chwa-	2c/	chwa-	2.f	chwa-	2.a	chwa-
2D	.	2d	.	.	.	.	.
.	.	.	.	4g	.	4b-/	.
=11-	=11	=11	=11	=11	=11	=11	=11
2A	ły	2e	ły	2a	ły	2cc	ły
2F/	nie-	2f	nie-	2a	nie-	2cc	nie-
2c	-u	2f	-u-	1g	-u-	2.cc	-u-
2C	.	2e	.	.	.	.	.
.	.	.	.	.	.	4b-/	.
=12-	=12	=12	=12	=12	=12	=12	=12
1F	płynie/	1f	pł_nie/	2a	-pły-	4a	pły-
.	.	.	.	.	.	4g	.
.	.	.	.	2.c	-nie/	2f	nie/
2.F/	I-	1f	I_mię	.	.	2.a	I-
.	.	.	.	4B-	I-	.	.
.	.	.	.	2A	-mię	.	.
4E	-mię	.	.	.	.	4g	-mię
=13-	=13	=13	=13	=13	=13	=13	=13
!!LO:PB:g=original
2D	twé	2.f	twé	2.d	twé	4a	twé
.	.	.	.	.	.	4b-/	.
2C	ʃłá-	.	.	.	.	2cc	ʃłá-
.	.	4e	ʃłá-	4e/	ʃłá-	.	.
2BB-	-wić	2d	-wić	2f	-wić	2f	-wić
2AA	bę-	2c/	bę-	1f	bę-	2f	bę-
=14-	=14	=14	=14	=14	=14	=14	=14
1GG	-(dę)/	1B-	-dę/	.	.	1g	-dę/
.	.	.	.	2e/	-dę/	.	.
2FF	Pó-	2A	Pó-	2.f	Pó-	2a	Pó-
2FF	-ťi	2c/	-ťi	.	.	2a	-ťi
.	.	.	.	4e/	-ťi	.	.
=15-	=15	=15	=15	=15	=15	=15	=15
2GG	św(iát)	2B-	świát	2d	świát	2g	świát
2AA	nie	2A	nie	2c	nie	1f	nie
2BB-	.	2G	.	2B-	.	.	.
2C	mi-	2G	mi-	4A	mi-	2e	mi-
.	.	.	.	4G	.	.	.
=16-	=16	=16	=16	=16	=16	=16	=16
!	!	!'ogonek po lewej stronie'	!	!'ogonek po lewej stronie'	!	!	!
!!LO:N:vis=00
0FF/	-nie.	0F/	-nie.	0A/	nie.	0f/	-nie.
=	=	=	=	=	=	=	=
*-	*-	*-	*-	*-	*-	*-	*-
!!!RDF**kern: l = terminal long
!!!system-decoration: s1,s2,s3,s4
!!!ENC:Anna Matuszewska
!!!END:2020-02-25
!!!URL-scan: https://polona.pl/item/melodiae-na-psalterz-polski,Nzk3MTM4ODQ/342 Scan on Polona
!!!IIIF: https://polona.pl/iiif/item/Nzk3MTM4ODQ/manifest.json
